X: 134
T:The Burning Bench
M:4/4
L:1/8
F:http://blackrosetheband.googlepages.com/ABCTUNES.ABC May 2009
C:Oliver Schroer
S:Celtic Dance
K:Dm
D2 E2|:"Dm"FDA,D FAGF|"C"ECG,C "Am"EGFE|"Dm"DA, (3A,A,A, DEFD|"C"EGce "G
"dcAG|"Dm"FDA,D FAGF|"C"ECG,
C EGFE|"Dm"DA, (3A,A,A, "Bm"DFAG|1 "C"FDEC "Dm"D3 E:|2 "C"FDEC "Dm"D4||
|:"Dm"Addc defd|Addc defd|adgd fded|"C"c2ec Gcec|"Dm"dAAG AGFD|"C"(3EFG
cG FEDC|"Dm"DD DC 
"Bm"DAGE|1 "C"FDEC "Dm"D3 F:|2 "C"FDEC "Dm"D3 E||

